X:1
T:Fuente De La Vida Eterna
T:NETTLETON
T:John Wyeth
T:Robert Robinson;; trad. Tomás M. Westrup
%%score ( 1 2 ) ( 3 4 )
L:1/8
M:3/4
K:D
V:1 treble nm="Piano"
V:2 treble 
V:3 bass nm="Piano"
V:4 bass 
V:1
 FE | D2 D2 FA | E2 E2 FA | B2 A2 FE | D4 FE | D2 D2 FA | E2 E2 FA | B2 A2 FE | D4 A(B/c/) | %9
w: 1.~Fuen- te|de la vi- da~e-|ter- na y de|to- da ben- di-|ción, En- sal-|zar tu gra- cia|tier- na de- be|ca- da co- ra-|zón. Tu pie- *|
w: 2.~De los|can- ti- cos ce-|les- tes, Te qui-|sié- ra- mos can-|tar, En- to-|na- dos por las|hues- tes Que lo-|gras- te res- ca-|tar; Al- mas *|
w: 3.~To- ma|nues- tros co- ra-|zo- nes Llé- na-|los de tu ver-|dad, De- tu~es-|pi- ri- tu los|do- nes, Y de|to- da san- ti-|dad. Guí- a- *|
 d2 c2 BA | (BA) F2 A(B/c/) | d2 c2 BA | d4 FE | D2 D2 FA | E2 E2 FA | B2 A2 FE | D4 |] %17
w: dad in- a- go-|ta- * ble, A- bun- *|dan- te~en per- do-|nar; Ú- ni-|co ser a- do-|ra- ble, Glo- ria~a|ti de- be- mos|dar.|
w: que~a bus- car vi-|nis- * te, Por- que *|les tu- vis- te~a-|mor; De~e- llas|te com- pa- de-|cis- te Con tier-|ní- si- mo fa-|vor.|
w: nos en o- be-|dien- * cia, Hu- mil- *|dad a- mor y|fe; Nos am-|pa- re tu cle-|men- cia; Sal- va-|dor pro- pi- cio|sé.|
V:2
 !stemless!D !stemless!C | D2 D2 !stemless!D!stemless!D | C2 C2 !stemless!D!stemless!D | %3
 D2 D2 !stemless!D!stemless!C | D4 !stemless!D !stemless!C | D2 D2 !stemless!D !stemless!D | %6
 C2 C2 !stemless!D !stemless!D | D2 D2 !stemless!D !stemless!C | D4 DG | %9
 F2 A2 !stemless!G !stemless!F | (!stemless!G !stemless!F) D2 DG | F2 A2 GG | %12
 F4 !stemless!D !stemless!C | D2 D2 DD | C2 C2 !stemless!D!stemless!D | %15
 D2 D2 !stemless!D !stemless!C | D4 |] %17
V:3
 D,A,, | D,2 D,2 D,F,, | A,,2 A,,2 D,F, | G,2 (F,G,) A,A,, | D,4 D,A,, | D,2 D,2 D,F,, | %6
 A,,2 A,,2 D,F, | G,2 (F,G,) A,A,, | D,4 F,E, | D,2 F,2 G,D, | D,2 D,2 F,E, | D,2 F,2 G,E, | %12
 D,4 D,A,, | D,2 D,2 D,F,, | A,,2 A,,2 D,F, | G,2 (F,G,) A,A,, | D,4 |] %17
V:4
 A,G, | F,2 F,2 A,A, | A,2 A,2 A,A, | G,2 A,2 A,G, | F,4 A,G, | F,2 F,2 A,A, | A,2 A,2 A,A, | %7
 G,2 A,2 A,G, | F,4 A,A, | A,2 D2 DD | D2 A,2 A,A, | A,2 D2 DC | D4 A,G, | F,2 F,2 A,A, | %14
 A,2 A,2 A,A, | G,2 A,2 A,G, | F,4 |] %17

